webroot/assets/navigation/navigation-usage-2.svg

<svg xmlns="http://www.w3.org/2000/svg" width="1000" height="528"><path fill="#f0f0f0" d="M0 48h1000v480H0z"/><g transform="translate(-360 -3870) translate(0 3549)"><path fill="#151515" d="M360 321h1000v48H360z"/><path fill="#fff" d="M1280 354h16v4h-16z"/><g fill="none" stroke="#fff" transform="translate(4 1) translate(1276 331)"><circle cx="8" cy="8" r="8" stroke="none"/><circle cx="8" cy="8" r="7.5"/></g><path fill="#fff" d="M1248 354h16v4h-16z"/><g fill="none" stroke="#fff" transform="translate(-28 1) translate(1276 331)"><circle cx="8" cy="8" r="8" stroke="none"/><circle cx="8" cy="8" r="7.5"/></g><path fill="#fff" d="M1216 354h16v4h-16z"/><g fill="none" stroke="#fff" transform="translate(-60 1) translate(1276 331)"><circle cx="8" cy="8" r="8" stroke="none"/><circle cx="8" cy="8" r="7.5"/></g><path fill="#fff" d="M1184 354h16v4h-16z"/><g fill="none" stroke="#fff" transform="translate(-92 1) translate(1276 331)"><circle cx="8" cy="8" r="8" stroke="none"/><circle cx="8" cy="8" r="7.5"/></g><path fill="#fff" d="M740 341h48v8h-48zM676 341h48v8h-48zM612 341h48v8h-48zM548 341h48v8h-48zM452 337h72v16h-72z"/><circle cx="12" cy="12" r="12" fill="#e00" transform="translate(424 333)"/></g><g fill="#f00" opacity=".03"><path d="M761 0h39v528h-39zM710 0h39v528h-39zM659 0h39v528h-39zM608 0h39v528h-39zM557 0h39v528h-39zM506 0h39v528h-39zM455 0h39v528h-39zM404 0h39v528h-39zM353 0h39v528h-39zM302 0h39v528h-39zM251 0h39v528h-39zM200 0h39v528h-39z"/></g></svg>

<svg xmlns="http://www.w3.org/2000/svg" width="1000" height="528" viewBox="0 0 1000 528"><defs><style>.a{fill:#f0f0f0;}.b{fill:#151515;}.c{fill:#fff;}.d,.i{fill:none;}.d{stroke:#fff;}.e{fill:#e00;}.f{opacity:0.03;}.g{fill:red;}.h{stroke:none;}</style></defs><path class="a" d="M0,48H1000V528H0Z"/><g transform="translate(-360 -321)"><path class="b" d="M360,321H1360v48H360Z"/><path class="c" d="M1280,354h16v4h-16Z"/><g class="d" transform="translate(1280 332)"><circle class="h" cx="8" cy="8" r="8"/><circle class="i" cx="8" cy="8" r="7.5"/></g><path class="c" d="M1248,354h16v4h-16Z"/><g class="d" transform="translate(1248 332)"><circle class="h" cx="8" cy="8" r="8"/><circle class="i" cx="8" cy="8" r="7.5"/></g><path class="c" d="M1216,354h16v4h-16Z"/><g class="d" transform="translate(1216 332)"><circle class="h" cx="8" cy="8" r="8"/><circle class="i" cx="8" cy="8" r="7.5"/></g><path class="c" d="M1184,354h16v4h-16Z"/><g class="d" transform="translate(1184 332)"><circle class="h" cx="8" cy="8" r="8"/><circle class="i" cx="8" cy="8" r="7.5"/></g><path class="c" d="M740,341h48v8H740Zm-64,0h48v8H676Zm-64,0h48v8H612Zm-64,0h48v8H548Zm-96-4h72v16H452Z"/><circle class="e" cx="12" cy="12" r="12" transform="translate(424 333)"/></g><g class="f"><path class="g" d="M761,0h39V528H761ZM710,0h39V528H710ZM659,0h39V528H659ZM608,0h39V528H608ZM557,0h39V528H557ZM506,0h39V528H506ZM455,0h39V528H455ZM404,0h39V528H404ZM353,0h39V528H353ZM302,0h39V528H302ZM251,0h39V528H251ZM200,0h39V528H200Z"/></g></svg>
